X:1
T:Boomer Johnson
M:4/4
L:1/8
K:C
 z G,| C3/2 C/2 C3/2 D/2 E3/2 E/2 D3/2 C/2| D/2 D3/2 C3/2 B,/2 C2 C3/2 C/2|\
 F3/2 F/2 F3/2 G/2A/2 F3/2 F3/2 F/2| E3/2 D/2 C3/2 E/2 G3 E| F3/2 F/2 F3/2 G/2A/2 F3/2 F3/2 F/2|\
 E3/2 D/2 C3/2 E/2 G2 G,3/2 G,/2| C3/2 C/2 C3/2 D/2E/2 E3/2 D3/2 C/2|\
 D3/2 D/2 C3/2 B,/2 C3||
